report_00007_2020-12-11T15:55:29.892Z/metrics/comparison/sorted/1_vs_2.svg

<svg width="640" height="500" xmlns="http://www.w3.org/2000/svg" xmlns:xlink="http://www.w3.org/1999/xlink"><path fill="#fff" d="M0 0h640v500H0z"/><defs><path id="d" stroke-width=".222" stroke="currentColor" d="M-1-1h2v2h-2z"/><path id="b" stroke-width=".222" stroke="currentColor" d="M0-1.33l-1.33 2h2.66z"/><path id="f" stroke-width=".222" stroke="currentColor" d="M0 1.33L1.265.411.782-1.067l-1.564-.009-.483 1.487z"/><use xlink:href="#b" id="c" stroke="currentColor" transform="rotate(180)"/><use xlink:href="#d" id="e" stroke="currentColor" transform="rotate(45)"/><circle id="a" stroke-width=".222" stroke="currentColor" cx="0" cy="0" r="1"/></defs><g fill="none" color="#000" stroke="currentColor"><path stroke="#000" d="M70.5 423.1h9m535.5 0h-9"/><text transform="translate(62.2 427)" stroke="none" fill="#000" font-family="Arial" font-size="12" text-anchor="end"><tspan>11000</tspan></text></g><g fill="none" color="#000" stroke="currentColor"><path stroke="#000" d="M70.5 376.6h9m535.5 0h-9"/><text transform="translate(62.2 380.5)" stroke="none" fill="#000" font-family="Arial" font-size="12" text-anchor="end"><tspan>11200</tspan></text></g><g fill="none" color="#000" stroke="currentColor"><path stroke="#000" d="M70.5 330.1h9m535.5 0h-9"/><text transform="translate(62.2 334)" stroke="none" fill="#000" font-family="Arial" font-size="12" text-anchor="end"><tspan>11400</tspan></text></g><g fill="none" color="#000" stroke="currentColor"><path stroke="#000" d="M70.5 283.6h9m535.5 0h-9"/><text transform="translate(62.2 287.5)" stroke="none" fill="#000" font-family="Arial" font-size="12" text-anchor="end"><tspan>11600</tspan></text></g><g fill="none" color="#000" stroke="currentColor"><path stroke="#000" d="M70.5 237.1h9m535.5 0h-9"/><text transform="translate(62.2 241)" stroke="none" fill="#000" font-family="Arial" font-size="12" text-anchor="end"><tspan>11800</tspan></text></g><g fill="none" color="#000" stroke="currentColor"><path stroke="#000" d="M70.5 190.5h9m535.5 0h-9"/><text transform="translate(62.2 194.4)" stroke="none" fill="#000" font-family="Arial" font-size="12" text-anchor="end"><tspan>12000</tspan></text></g><g fill="none" color="#000" stroke="currentColor"><path stroke="#000" d="M70.5 144h9m535.5 0h-9"/><text transform="translate(62.2 147.9)" stroke="none" fill="#000" font-family="Arial" font-size="12" text-anchor="end"><tspan>12200</tspan></text></g><g fill="none" color="#000" stroke="currentColor"><path stroke="#000" d="M70.5 97.5h9m535.5 0h-9"/><text transform="translate(62.2 101.4)" stroke="none" fill="#000" font-family="Arial" font-size="12" text-anchor="end"><tspan>12400</tspan></text></g><g fill="none" color="#000" stroke="currentColor"><path stroke="#000" d="M70.5 51h9M615 51h-9"/><text transform="translate(62.2 54.9)" stroke="none" fill="#000" font-family="Arial" font-size="12" text-anchor="end"><tspan>12600</tspan></text></g><g fill="none" color="#000" stroke="currentColor"><path stroke="#000" d="M70.5 446v-9m0-418.9v9"/><text transform="translate(70.5 467.9)" stroke="none" fill="#000" font-family="Arial" font-size="12" text-anchor="middle"><tspan>0</tspan></text></g><g fill="none" color="#000" stroke="currentColor"><path stroke="#000" d="M125.5 446v-9m0-418.9v9"/><text transform="translate(125.5 467.9)" stroke="none" fill="#000" font-family="Arial" font-size="12" text-anchor="middle"><tspan>10</tspan></text></g><g fill="none" color="#000" stroke="currentColor"><path stroke="#000" d="M180.5 446v-9m0-418.9v9"/><text transform="translate(180.5 467.9)" stroke="none" fill="#000" font-family="Arial" font-size="12" text-anchor="middle"><tspan>20</tspan></text></g><g fill="none" color="#000" stroke="currentColor"><path stroke="#000" d="M235.5 446v-9m0-418.9v9"/><text transform="translate(235.5 467.9)" stroke="none" fill="#000" font-family="Arial" font-size="12" text-anchor="middle"><tspan>30</tspan></text></g><g fill="none" color="#000" stroke="currentColor"><path stroke="#000" d="M290.5 446v-9m0-418.9v9"/><text transform="translate(290.5 467.9)" stroke="none" fill="#000" font-family="Arial" font-size="12" text-anchor="middle"><tspan>40</tspan></text></g><g fill="none" color="#000" stroke="currentColor"><path stroke="#000" d="M345.5 446v-9m0-418.9v9"/><text transform="translate(345.5 467.9)" stroke="none" fill="#000" font-family="Arial" font-size="12" text-anchor="middle"><tspan>50</tspan></text></g><g fill="none" color="#000" stroke="currentColor"><path stroke="#000" d="M400.5 446v-9m0-418.9v9"/><text transform="translate(400.5 467.9)" stroke="none" fill="#000" font-family="Arial" font-size="12" text-anchor="middle"><tspan>60</tspan></text></g><g fill="none" color="#000" stroke="currentColor"><path stroke="#000" d="M455.5 446v-9m0-418.9v9"/><text transform="translate(455.5 467.9)" stroke="none" fill="#000" font-family="Arial" font-size="12" text-anchor="middle"><tspan>70</tspan></text></g><g fill="none" color="#000" stroke="currentColor"><path stroke="#000" d="M510.5 446v-9m0-418.9v9"/><text transform="translate(510.5 467.9)" stroke="none" fill="#000" font-family="Arial" font-size="12" text-anchor="middle"><tspan>80</tspan></text></g><g fill="none" color="#000" stroke="currentColor"><path stroke="#000" d="M565.5 446v-9m0-418.9v9"/><text transform="translate(565.5 467.9)" stroke="none" fill="#000" font-family="Arial" font-size="12" text-anchor="middle"><tspan>90</tspan></text></g><path stroke="#000" d="M70.5 18.1V446H615V18.1H70.5z" fill="none" color="#000"/><text transform="translate(283.9 485.9)" stroke="none" fill="#000" font-family="Arial" font-size="12" text-anchor="end" color="#000"><tspan>pages</tspan></text><path stroke="#9400D3" d="M292.2 482h42.2M70.5 332.2l5.5-27.9 5.5-.3 5.5-.7 5.5-6.7 5.5-5.4 5.5-.7 5.5-.4 5.5-.3 5.5-.7 5.5-.9h5.5l5.5-.2 5.5-.2 5.5-.3 5.5-.4 5.5-.3 5.5-.7 5.5-1.1 5.5-.3 5.5-3.2 5.5-7.2 5.5-.7 5.5-.5h5.5l5.5-.2 5.5-.5 5.5-.2 5.5-.3 5.5-.2h5.5l5.5-.2h5.5l5.5-.3h5.5l5.5-.4 5.5-.5 5.5-.2 5.5-.3h5.5l5.5-.2h11l5.5-.2 5.5-.3 5.5-.4 5.5-.3h5.5l5.5-.2 5.5-.2h5.5l5.5-.2 5.5-.3 5.5-.2h11l5.5-.2 5.5-.5 5.5-.2 5.5-.3 5.5-.2h5.5l5.5-1.2 5.5-3.7h5.5l5.5-.9 5.5-2.1 5.5-1.2 5.5-.9h5.5l5.5-1.2 5.5-.7 5.5-.7 5.5-.2 5.5-.2 5.5-.3 5.5-.4 5.5-.7 5.5-.7 5.5-.5h16.5l5.5-.5 5.5-.2 5.5-1.4h5.5l5.5-3.2 5.5-.7 5.5-1.2 5.5-.7 5.5-3 5.5-2.6 5.5-.7 5.5-6 5.5-5.1 5.5-2.4 5.5-1.1 5.5-52.4L615 26.3" fill="none" color="#000"/><text transform="translate(442.3 485.9)" stroke="none" fill="#000" font-family="Arial" font-size="12" text-anchor="end" color="#000"><tspan>pages+cached</tspan></text><path stroke="#009E73" d="M450.6 482h42.2M70.5 437.8l5.5-1h16.5l5.5-.2h5.5l5.5-.2 5.5-.3 5.5-.4h38.5l5.5-.3h16.5l5.5-.2h11l5.5-.2h5.5l5.5-.3h33l5.5-.2h5.5l5.5-.2 5.5-.3H285l5.5-.2 5.5-.2h5.5l5.5-.2 5.5-.3h11l5.5-.4h5.5l5.5-.7h11l5.5-.3 5.5-.2h5.5l5.5-.2h5.5l5.5-.5h16.5l5.5-.2h11l5.5-.3h5.5l5.5-.2 5.5-.2 5.5-.3h11l5.5-.2h5.5l5.5-.2h5.5l5.5-.3h22l5.5-.2h5.5l5.5-.2h11l5.5-.3 5.5-.2h11l5.5-.5h11l5.5-.7 5.5-1.4 5.5-2.3 5.5-.4h5.5l5.5-3.8 5.5-1.8 5.5-110" fill="none" color="#000"/><g fill="none" color="#000" stroke="currentColor"><path stroke="#000" d="M70.5 18.1V446H615V18.1H70.5z"/></g></svg>

<?xml version="1.0" encoding="utf-8"  standalone="no"?>
<svg 
 width="640" height="500"
 viewBox="0 0 640 500"
 xmlns="http://www.w3.org/2000/svg"
 xmlns:xlink="http://www.w3.org/1999/xlink"
>

<title>Gnuplot</title>
<desc>Produced by GNUPLOT 5.4 patchlevel 0 </desc>

<g id="gnuplot_canvas">

<rect x="0" y="0" width="640" height="500" fill="#ffffff"/>
<defs>

	<circle id='gpDot' r='0.5' stroke-width='0.5' stroke='currentColor'/>
	<path id='gpPt0' stroke-width='0.222' stroke='currentColor' d='M-1,0 h2 M0,-1 v2'/>
	<path id='gpPt1' stroke-width='0.222' stroke='currentColor' d='M-1,-1 L1,1 M1,-1 L-1,1'/>
	<path id='gpPt2' stroke-width='0.222' stroke='currentColor' d='M-1,0 L1,0 M0,-1 L0,1 M-1,-1 L1,1 M-1,1 L1,-1'/>
	<rect id='gpPt3' stroke-width='0.222' stroke='currentColor' x='-1' y='-1' width='2' height='2'/>
	<rect id='gpPt4' stroke-width='0.222' stroke='currentColor' fill='currentColor' x='-1' y='-1' width='2' height='2'/>
	<circle id='gpPt5' stroke-width='0.222' stroke='currentColor' cx='0' cy='0' r='1'/>
	<use xlink:href='#gpPt5' id='gpPt6' fill='currentColor' stroke='none'/>
	<path id='gpPt7' stroke-width='0.222' stroke='currentColor' d='M0,-1.33 L-1.33,0.67 L1.33,0.67 z'/>
	<use xlink:href='#gpPt7' id='gpPt8' fill='currentColor' stroke='none'/>
	<use xlink:href='#gpPt7' id='gpPt9' stroke='currentColor' transform='rotate(180)'/>
	<use xlink:href='#gpPt9' id='gpPt10' fill='currentColor' stroke='none'/>
	<use xlink:href='#gpPt3' id='gpPt11' stroke='currentColor' transform='rotate(45)'/>
	<use xlink:href='#gpPt11' id='gpPt12' fill='currentColor' stroke='none'/>
	<path id='gpPt13' stroke-width='0.222' stroke='currentColor' d='M0,1.330 L1.265,0.411 L0.782,-1.067 L-0.782,-1.076 L-1.265,0.411 z'/>
	<use xlink:href='#gpPt13' id='gpPt14' fill='currentColor' stroke='none'/>
	<filter id='textbox' filterUnits='objectBoundingBox' x='0' y='0' height='1' width='1'>
	  <feFlood flood-color='#FFFFFF' flood-opacity='1' result='bgnd'/>
	  <feComposite in='SourceGraphic' in2='bgnd' operator='atop'/>
	</filter>
	<filter id='greybox' filterUnits='objectBoundingBox' x='0' y='0' height='1' width='1'>
	  <feFlood flood-color='lightgrey' flood-opacity='1' result='grey'/>
	  <feComposite in='SourceGraphic' in2='grey' operator='atop'/>
	</filter>
</defs>
<g fill="none" color="#FFFFFF" stroke="black" stroke-width="1.00" stroke-linecap="butt" stroke-linejoin="miter">
</g>
<g fill="none" color="black" stroke="currentColor" stroke-width="1.00" stroke-linecap="butt" stroke-linejoin="miter">
	<path stroke='black'  d='M70.5,423.1 L79.5,423.1 M615.0,423.1 L606.0,423.1  '/>	<g transform="translate(62.2,427.0)" stroke="none" fill="black" font-family="Arial" font-size="12.00"  text-anchor="end">
		<text><tspan font-family="Arial" > 11000</tspan></text>
	</g>
</g>
<g fill="none" color="black" stroke="currentColor" stroke-width="1.00" stroke-linecap="butt" stroke-linejoin="miter">
	<path stroke='black'  d='M70.5,376.6 L79.5,376.6 M615.0,376.6 L606.0,376.6  '/>	<g transform="translate(62.2,380.5)" stroke="none" fill="black" font-family="Arial" font-size="12.00"  text-anchor="end">
		<text><tspan font-family="Arial" > 11200</tspan></text>
	</g>
</g>
<g fill="none" color="black" stroke="currentColor" stroke-width="1.00" stroke-linecap="butt" stroke-linejoin="miter">
	<path stroke='black'  d='M70.5,330.1 L79.5,330.1 M615.0,330.1 L606.0,330.1  '/>	<g transform="translate(62.2,334.0)" stroke="none" fill="black" font-family="Arial" font-size="12.00"  text-anchor="end">
		<text><tspan font-family="Arial" > 11400</tspan></text>
	</g>
</g>
<g fill="none" color="black" stroke="currentColor" stroke-width="1.00" stroke-linecap="butt" stroke-linejoin="miter">
	<path stroke='black'  d='M70.5,283.6 L79.5,283.6 M615.0,283.6 L606.0,283.6  '/>	<g transform="translate(62.2,287.5)" stroke="none" fill="black" font-family="Arial" font-size="12.00"  text-anchor="end">
		<text><tspan font-family="Arial" > 11600</tspan></text>
	</g>
</g>
<g fill="none" color="black" stroke="currentColor" stroke-width="1.00" stroke-linecap="butt" stroke-linejoin="miter">
	<path stroke='black'  d='M70.5,237.1 L79.5,237.1 M615.0,237.1 L606.0,237.1  '/>	<g transform="translate(62.2,241.0)" stroke="none" fill="black" font-family="Arial" font-size="12.00"  text-anchor="end">
		<text><tspan font-family="Arial" > 11800</tspan></text>
	</g>
</g>
<g fill="none" color="black" stroke="currentColor" stroke-width="1.00" stroke-linecap="butt" stroke-linejoin="miter">
	<path stroke='black'  d='M70.5,190.5 L79.5,190.5 M615.0,190.5 L606.0,190.5  '/>	<g transform="translate(62.2,194.4)" stroke="none" fill="black" font-family="Arial" font-size="12.00"  text-anchor="end">
		<text><tspan font-family="Arial" > 12000</tspan></text>
	</g>
</g>
<g fill="none" color="black" stroke="currentColor" stroke-width="1.00" stroke-linecap="butt" stroke-linejoin="miter">
	<path stroke='black'  d='M70.5,144.0 L79.5,144.0 M615.0,144.0 L606.0,144.0  '/>	<g transform="translate(62.2,147.9)" stroke="none" fill="black" font-family="Arial" font-size="12.00"  text-anchor="end">
		<text><tspan font-family="Arial" > 12200</tspan></text>
	</g>
</g>
<g fill="none" color="black" stroke="currentColor" stroke-width="1.00" stroke-linecap="butt" stroke-linejoin="miter">
	<path stroke='black'  d='M70.5,97.5 L79.5,97.5 M615.0,97.5 L606.0,97.5  '/>	<g transform="translate(62.2,101.4)" stroke="none" fill="black" font-family="Arial" font-size="12.00"  text-anchor="end">
		<text><tspan font-family="Arial" > 12400</tspan></text>
	</g>
</g>
<g fill="none" color="black" stroke="currentColor" stroke-width="1.00" stroke-linecap="butt" stroke-linejoin="miter">
	<path stroke='black'  d='M70.5,51.0 L79.5,51.0 M615.0,51.0 L606.0,51.0  '/>	<g transform="translate(62.2,54.9)" stroke="none" fill="black" font-family="Arial" font-size="12.00"  text-anchor="end">
		<text><tspan font-family="Arial" > 12600</tspan></text>
	</g>
</g>
<g fill="none" color="black" stroke="currentColor" stroke-width="1.00" stroke-linecap="butt" stroke-linejoin="miter">
	<path stroke='black'  d='M70.5,446.0 L70.5,437.0 M70.5,18.1 L70.5,27.1  '/>	<g transform="translate(70.5,467.9)" stroke="none" fill="black" font-family="Arial" font-size="12.00"  text-anchor="middle">
		<text><tspan font-family="Arial" > 0</tspan></text>
	</g>
</g>
<g fill="none" color="black" stroke="currentColor" stroke-width="1.00" stroke-linecap="butt" stroke-linejoin="miter">
	<path stroke='black'  d='M125.5,446.0 L125.5,437.0 M125.5,18.1 L125.5,27.1  '/>	<g transform="translate(125.5,467.9)" stroke="none" fill="black" font-family="Arial" font-size="12.00"  text-anchor="middle">
		<text><tspan font-family="Arial" > 10</tspan></text>
	</g>
</g>
<g fill="none" color="black" stroke="currentColor" stroke-width="1.00" stroke-linecap="butt" stroke-linejoin="miter">
	<path stroke='black'  d='M180.5,446.0 L180.5,437.0 M180.5,18.1 L180.5,27.1  '/>	<g transform="translate(180.5,467.9)" stroke="none" fill="black" font-family="Arial" font-size="12.00"  text-anchor="middle">
		<text><tspan font-family="Arial" > 20</tspan></text>
	</g>
</g>
<g fill="none" color="black" stroke="currentColor" stroke-width="1.00" stroke-linecap="butt" stroke-linejoin="miter">
	<path stroke='black'  d='M235.5,446.0 L235.5,437.0 M235.5,18.1 L235.5,27.1  '/>	<g transform="translate(235.5,467.9)" stroke="none" fill="black" font-family="Arial" font-size="12.00"  text-anchor="middle">
		<text><tspan font-family="Arial" > 30</tspan></text>
	</g>
</g>
<g fill="none" color="black" stroke="currentColor" stroke-width="1.00" stroke-linecap="butt" stroke-linejoin="miter">
	<path stroke='black'  d='M290.5,446.0 L290.5,437.0 M290.5,18.1 L290.5,27.1  '/>	<g transform="translate(290.5,467.9)" stroke="none" fill="black" font-family="Arial" font-size="12.00"  text-anchor="middle">
		<text><tspan font-family="Arial" > 40</tspan></text>
	</g>
</g>
<g fill="none" color="black" stroke="currentColor" stroke-width="1.00" stroke-linecap="butt" stroke-linejoin="miter">
	<path stroke='black'  d='M345.5,446.0 L345.5,437.0 M345.5,18.1 L345.5,27.1  '/>	<g transform="translate(345.5,467.9)" stroke="none" fill="black" font-family="Arial" font-size="12.00"  text-anchor="middle">
		<text><tspan font-family="Arial" > 50</tspan></text>
	</g>
</g>
<g fill="none" color="black" stroke="currentColor" stroke-width="1.00" stroke-linecap="butt" stroke-linejoin="miter">
	<path stroke='black'  d='M400.5,446.0 L400.5,437.0 M400.5,18.1 L400.5,27.1  '/>	<g transform="translate(400.5,467.9)" stroke="none" fill="black" font-family="Arial" font-size="12.00"  text-anchor="middle">
		<text><tspan font-family="Arial" > 60</tspan></text>
	</g>
</g>
<g fill="none" color="black" stroke="currentColor" stroke-width="1.00" stroke-linecap="butt" stroke-linejoin="miter">
	<path stroke='black'  d='M455.5,446.0 L455.5,437.0 M455.5,18.1 L455.5,27.1  '/>	<g transform="translate(455.5,467.9)" stroke="none" fill="black" font-family="Arial" font-size="12.00"  text-anchor="middle">
		<text><tspan font-family="Arial" > 70</tspan></text>
	</g>
</g>
<g fill="none" color="black" stroke="currentColor" stroke-width="1.00" stroke-linecap="butt" stroke-linejoin="miter">
	<path stroke='black'  d='M510.5,446.0 L510.5,437.0 M510.5,18.1 L510.5,27.1  '/>	<g transform="translate(510.5,467.9)" stroke="none" fill="black" font-family="Arial" font-size="12.00"  text-anchor="middle">
		<text><tspan font-family="Arial" > 80</tspan></text>
	</g>
</g>
<g fill="none" color="black" stroke="currentColor" stroke-width="1.00" stroke-linecap="butt" stroke-linejoin="miter">
	<path stroke='black'  d='M565.5,446.0 L565.5,437.0 M565.5,18.1 L565.5,27.1  '/>	<g transform="translate(565.5,467.9)" stroke="none" fill="black" font-family="Arial" font-size="12.00"  text-anchor="middle">
		<text><tspan font-family="Arial" > 90</tspan></text>
	</g>
</g>
<g fill="none" color="black" stroke="currentColor" stroke-width="1.00" stroke-linecap="butt" stroke-linejoin="miter">
</g>
<g fill="none" color="black" stroke="currentColor" stroke-width="1.00" stroke-linecap="butt" stroke-linejoin="miter">
	<path stroke='black'  d='M70.5,18.1 L70.5,446.0 L615.0,446.0 L615.0,18.1 L70.5,18.1 Z  '/></g>
<g fill="none" color="black" stroke="currentColor" stroke-width="1.00" stroke-linecap="butt" stroke-linejoin="miter">
</g>
	<g id="gnuplot_plot_1" ><title>pages</title>
<g fill="none" color="black" stroke="currentColor" stroke-width="1.00" stroke-linecap="butt" stroke-linejoin="miter">
	<g transform="translate(283.9,485.9)" stroke="none" fill="black" font-family="Arial" font-size="12.00"  text-anchor="end">
		<text><tspan font-family="Arial" >pages</tspan></text>
	</g>
</g>
<g fill="none" color="black" stroke="currentColor" stroke-width="1.00" stroke-linecap="butt" stroke-linejoin="miter">
	<path stroke='rgb(148,   0, 211)'  d='M292.2,482.0 L334.4,482.0 M70.5,332.2 L76.0,304.3 L81.5,304.0 L87.0,303.3 L92.5,296.6 L98.0,291.2
		L103.5,290.5 L109.0,290.1 L114.5,289.8 L120.0,289.1 L125.5,288.2 L131.0,288.2 L136.5,288.0 L142.0,287.8
		L147.5,287.5 L153.0,287.1 L158.5,286.8 L164.0,286.1 L169.5,285.0 L175.0,284.7 L180.5,281.5 L186.0,274.3
		L191.5,273.6 L197.0,273.1 L202.5,273.1 L208.0,272.9 L213.5,272.4 L219.0,272.2 L224.5,271.9 L230.0,271.7
		L235.5,271.7 L241.0,271.5 L246.5,271.5 L252.0,271.2 L257.5,271.2 L263.0,270.8 L268.5,270.3 L274.0,270.1
		L279.5,269.8 L285.0,269.8 L290.5,269.6 L296.0,269.6 L301.5,269.6 L307.0,269.4 L312.5,269.1 L318.0,268.7
		L323.5,268.4 L329.0,268.4 L334.5,268.2 L340.0,268.0 L345.5,268.0 L351.0,267.8 L356.5,267.5 L362.0,267.3
		L367.5,267.3 L373.0,267.3 L378.5,267.1 L384.0,266.6 L389.5,266.4 L395.0,266.1 L400.5,265.9 L406.0,265.9
		L411.5,264.7 L417.0,261.0 L422.5,261.0 L428.0,260.1 L433.5,258.0 L439.0,256.8 L444.5,255.9 L450.0,255.9
		L455.5,254.7 L461.0,254.0 L466.5,253.3 L472.0,253.1 L477.5,252.9 L483.0,252.6 L488.5,252.2 L494.0,251.5
		L499.5,250.8 L505.0,250.3 L510.5,250.3 L516.0,250.3 L521.5,250.3 L527.0,249.8 L532.5,249.6 L538.0,248.2
		L543.5,248.2 L549.0,245.0 L554.5,244.3 L560.0,243.1 L565.5,242.4 L571.0,239.4 L576.5,236.8 L582.0,236.1
		L587.5,230.1 L593.0,225.0 L598.5,222.6 L604.0,221.5 L609.5,169.1 L615.0,26.3  '/></g>
	</g>
	<g id="gnuplot_plot_2" ><title>pages+cached</title>
<g fill="none" color="black" stroke="currentColor" stroke-width="1.00" stroke-linecap="butt" stroke-linejoin="miter">
	<g transform="translate(442.3,485.9)" stroke="none" fill="black" font-family="Arial" font-size="12.00"  text-anchor="end">
		<text><tspan font-family="Arial" >pages+cached</tspan></text>
	</g>
</g>
<g fill="none" color="black" stroke="currentColor" stroke-width="1.00" stroke-linecap="butt" stroke-linejoin="miter">
	<path stroke='rgb(  0, 158, 115)'  d='M450.6,482.0 L492.8,482.0 M70.5,437.8 L76.0,436.8 L81.5,436.8 L87.0,436.8 L92.5,436.8 L98.0,436.6
		L103.5,436.6 L109.0,436.4 L114.5,436.1 L120.0,435.7 L125.5,435.7 L131.0,435.7 L136.5,435.7 L142.0,435.7
		L147.5,435.7 L153.0,435.7 L158.5,435.7 L164.0,435.4 L169.5,435.4 L175.0,435.4 L180.5,435.4 L186.0,435.2
		L191.5,435.2 L197.0,435.2 L202.5,435.0 L208.0,435.0 L213.5,434.7 L219.0,434.7 L224.5,434.7 L230.0,434.7
		L235.5,434.7 L241.0,434.7 L246.5,434.7 L252.0,434.5 L257.5,434.5 L263.0,434.3 L268.5,434.0 L274.0,434.0
		L279.5,434.0 L285.0,434.0 L290.5,433.8 L296.0,433.6 L301.5,433.6 L307.0,433.4 L312.5,433.1 L318.0,433.1
		L323.5,433.1 L329.0,432.7 L334.5,432.7 L340.0,432.0 L345.5,432.0 L351.0,432.0 L356.5,431.7 L362.0,431.5
		L367.5,431.5 L373.0,431.3 L378.5,431.3 L384.0,430.8 L389.5,430.8 L395.0,430.8 L400.5,430.8 L406.0,430.6
		L411.5,430.6 L417.0,430.6 L422.5,430.3 L428.0,430.3 L433.5,430.1 L439.0,429.9 L444.5,429.6 L450.0,429.6
		L455.5,429.6 L461.0,429.4 L466.5,429.4 L472.0,429.2 L477.5,429.2 L483.0,428.9 L488.5,428.9 L494.0,428.9
		L499.5,428.9 L505.0,428.9 L510.5,428.7 L516.0,428.7 L521.5,428.5 L527.0,428.5 L532.5,428.5 L538.0,428.2
		L543.5,428.0 L549.0,428.0 L554.5,428.0 L560.0,427.5 L565.5,427.5 L571.0,427.5 L576.5,426.8 L582.0,425.4
		L587.5,423.1 L593.0,422.7 L598.5,422.7 L604.0,418.9 L609.5,417.1 L615.0,307.1  '/></g>
	</g>
<g fill="none" color="#FFFFFF" stroke="rgb(  0, 158, 115)" stroke-width="2.00" stroke-linecap="butt" stroke-linejoin="miter">
</g>
<g fill="none" color="black" stroke="currentColor" stroke-width="2.00" stroke-linecap="butt" stroke-linejoin="miter">
</g>
<g fill="none" color="black" stroke="black" stroke-width="1.00" stroke-linecap="butt" stroke-linejoin="miter">
</g>
<g fill="none" color="black" stroke="currentColor" stroke-width="1.00" stroke-linecap="butt" stroke-linejoin="miter">
	<path stroke='black'  d='M70.5,18.1 L70.5,446.0 L615.0,446.0 L615.0,18.1 L70.5,18.1 Z  '/></g>
<g fill="none" color="black" stroke="currentColor" stroke-width="1.00" stroke-linecap="butt" stroke-linejoin="miter">
</g>
</g>
</svg>
